!!!COM: Anon.
!!!OTL: La Cojita
!! Maria Cadilla de Martinez,
!! Juegos Y Canciones Infantiles de Puerto Rico
!! Talleres Graficos, Cas Baldrich, Brau 93, San Juan, P.R.
!! 1940.  Derechos reservados de la Autora
!! page 173
!! Allegretto
**kern
*clefG2
*k[f#]
*M2/4
{8d
8d
=
4b
8a
8b
=
8g
8d},
{8g
8d
=
4g
8a
8a
=
4b},
{8d
8d
=
16b
8b
16b
8a
8b
=
8g
8d},
{8g
8d
=
4g
8a
8a
=
4b}
==
*-
